kora/actions/scalable/fcitx-erbi.svg

<svg xmlns="http://www.w3.org/2000/svg" width="16" height="16" version="1.1">
 <defs>
  <style id="current-color-scheme" type="text/css">
   .ColorScheme-Text { color:#dfdfdf; } .ColorScheme-Highlight { color:#4285f4; }
  </style>
 </defs>
 <path style="fill:currentColor" class="ColorScheme-Text" d="M 2 0 C 0.892 0 0 0.892 0 2 L 0 14 C 0 15.108 0.892 16 2 16 L 14 16 C 15.108 16 16 15.108 16 14 L 16 2 C 16 0.892 15.108 0 14 0 L 2 0 z M 10.03125 0.9921875 L 11.03125 1.0078125 C 11.021062 1.6879602 11.043325 2.3455896 11.068359 3 L 14 3 L 14 4 L 11.117188 4 C 11.266012 6.3082376 11.59863 8.4006193 12.007812 10.033203 C 12.298113 11.191476 12.623593 12.126867 12.919922 12.742188 C 13.068086 13.049847 13.212807 13.276703 13.316406 13.398438 C 13.362586 13.452697 13.314985 13.4285 13.328125 13.4375 C 13.566495 13.373903 13.699315 13.283743 13.806641 13.007812 C 13.928284 12.695071 13.982734 12.196257 13.990234 11.632812 L 14.990234 11.644531 C 14.982169 12.251378 14.943272 12.842118 14.738281 13.369141 C 14.533291 13.896164 14.078213 14.368195 13.435547 14.480469 A 0.50005 0.50005 0 0 1 13.355469 14.486328 C 12.983482 14.491132 12.747916 14.273927 12.554688 14.046875 C 12.361456 13.819823 12.190941 13.531708 12.019531 13.175781 C 11.676713 12.463927 11.341014 11.480154 11.039062 10.275391 C 10.609645 8.5620428 10.265475 6.3930814 10.115234 4 L 2 4 L 2 3 L 10.070312 3 C 10.045744 2.3399811 10.020971 1.6784048 10.03125 0.9921875 z M 13 1 C 13.416833 1.3789393 13.758179 1.7765262 14.023438 2.1933594 L 13.056641 2.7617188 C 12.829277 2.3448854 12.525423 1.928552 12.146484 1.5117188 L 13 1 z M 3 5 L 9 5 L 9 6 L 3 6 L 3 5 z M 3 7 L 9 7 L 9 8 L 3 8 L 3 7 z M 3 9 L 4 9 L 9 9 L 9 12 L 8 12 L 8 10 L 4 10 L 4 12 L 3 12 L 3 10 L 3 9 z M 5.0097656 11 L 6.0917969 11 C 6.0085254 12.204012 5.7080472 13.115307 5.1621094 13.693359 C 4.5179127 14.413344 3.3626453 14.848424 1.6953125 15 L 1.2402344 14.033203 C 2.7559915 13.881627 3.7593321 13.540281 4.2519531 13.009766 C 4.6817255 12.579993 4.9281536 11.902276 5.0097656 11 z M 6.703125 11.998047 C 7.6504731 12.452774 8.5225869 12.983541 9.3183594 13.589844 L 8.5214844 14.5 C 7.7636059 13.855803 6.9309387 13.30629 6.0214844 12.851562 L 6.703125 11.998047 z"/>
</svg>

<svg xmlns="http://www.w3.org/2000/svg" style="fill-rule:evenodd;clip-rule:evenodd;stroke-linejoin:round;stroke-miterlimit:2" width="100%" height="100%" version="1.1" viewBox="0 0 16 16" xml:space="preserve">
 <defs>
  <style id="current-color-scheme" type="text/css">
   .ColorScheme-Text { color:#dfdfdf; } .ColorScheme-Highlight { color:#4285f4; } .ColorScheme-NeutralText { color:#ff9800; } .ColorScheme-PositiveText { color:#4caf50; } .ColorScheme-NegativeText { color:#f44336; }
  </style>
 </defs>
 <path style="fill:currentColor;" class="ColorScheme-Text" d="M5.01,11l1.082,0c-0.083,1.204 -0.384,2.115 -0.93,2.693c-0.644,0.72 -1.799,1.155 -3.467,1.307l-0.455,-0.967c1.516,-0.151 2.519,-0.493 3.012,-1.023c0.43,-0.43 0.676,-1.108 0.758,-2.01Zm1.693,0.998c0.947,0.455 1.82,0.986 2.615,1.592l-0.797,0.91c-0.757,-0.644 -1.59,-1.194 -2.5,-1.648l0.682,-0.854Zm3.328,-11.006l1,0.016c-0.01,0.68 0.012,1.338 0.037,1.992l2.932,-0l0,1l-2.883,-0c0.149,2.308 0.482,4.401 0.891,6.033c0.29,1.158 0.616,2.094 0.912,2.709c0.148,0.308 0.293,0.535 0.396,0.656c0.047,0.055 -0.001,0.03 0.012,0.039c0.238,-0.063 0.371,-0.153 0.479,-0.429c0.121,-0.313 0.176,-0.812 0.183,-1.375l1,0.012c-0.008,0.606 -0.047,1.197 -0.252,1.724c-0.205,0.527 -0.66,0.999 -1.302,1.111c-0.027,0.005 -0.054,0.007 -0.081,0.006c-0.372,0.005 -0.607,-0.212 -0.8,-0.439c-0.194,-0.227 -0.364,-0.515 -0.535,-0.871c-0.343,-0.712 -0.679,-1.696 -0.981,-2.901c-0.429,-1.713 -0.774,-3.882 -0.924,-6.275l-8.115,-0l-0,-1l8.07,-0c-0.024,-0.66 -0.049,-1.322 -0.039,-2.008Zm-7.031,8.008l6,-0l-0,3l-1,-0l-0,-2l-4,-0l-0,2l-1,-0l-0,-3Zm-0,-2l6,-0l-0,1l-6,-0l-0,-1Zm-0,-2l6,-0l-0,1l-6,-0l-0,-1Zm10,-4c0.417,0.379 0.758,0.777 1.023,1.193l-0.966,0.569c-0.228,-0.417 -0.532,-0.833 -0.911,-1.25l0.854,-0.512Z"/>
</svg>
